Origami/16x16/apps/pia-manager.svg

<svg width="16" height="16" version="1.1" viewBox="0 0 16 16" xmlns="http://www.w3.org/2000/svg">
 <g transform="matrix(1.0416667 0 0 .97222225 .16666665 .55555548)">
  <rect x=".8" y="5.6" width="3.2" height="7.2" rx=".8" ry=".8" style="fill:#358334"/>
  <rect x="12" y="5.6" width="3.2" height="7.2" rx=".8" ry=".8" style="fill:#358334"/>
 </g>
 <g transform="matrix(1.1 0 0 1 -.3 0)">
  <path d="m3.7692308 5.6h8.4615382 0.769231v9.6c0 0.4432-0.343077 0.8-0.769231 0.8h-2.6923075l-1.1538461-2h-0.7692308l-1.1538461 2h-2.6923077c-0.4261539 0-0.7692308-0.3568-0.7692308-0.8v-9.6z" style="fill:#50b24e"/>
  <ellipse cx="8" cy="5.2" rx="5" ry="5.2" style="fill:#50b24e"/>
 </g>
 <path d="M 8.5,2 A 3.5,3.5555556 0 0 0 5,5.5555556 3.5,3.5555556 0 0 0 5.0316181,6 L 11.969241,6 A 3.5,3.5555556 0 0 0 12,5.5555556 3.5,3.5555556 0 0 0 8.5,2 Z" style="fill:#ffffff"/>
 <path class="ColorScheme-Text" d="m8.5 7.0004643c-0.9233333 0-1.4666667 0.7806857-1.4666667 1.7410714v0.2584643h-0.6166666c-0.2308334 0-0.4166667 0.262857-0.4166667 0.500286v2.071143c0 0.237428 0.1858333 0.428571 0.4166667 0.428571h4.1666663c0.230834 0 0.416667-0.191143 0.416667-0.428571v-2.071143c0-0.237429-0.189178-0.53944-0.416667-0.500286h-0.6166661v-0.2584643c0-0.96-0.5433336-1.7410714-1.4666669-1.7410714zm0 0.8571429c0.4616667 0 0.6333332 0.3822857 0.6333332 0.8571428v0.28525h-1.2666665v-0.28525c0-0.4748571 0.1716666-0.8571428 0.6333333-0.8571428z" style="fill:#ffffff"/>
 <rect x="10" y="4" width="1" height="1" style="fill:#3f3f3f"/>
 <rect x="6" y="4" width="1" height="1" style="fill:#3f3f3f"/>
</svg>

<svg xmlns="http://www.w3.org/2000/svg" width="16" height="16" version="1.1" viewBox="0 0 16 16">
 <g transform="matrix(1.0416667,0,0,0.97222225,0.16666665,0.55555548)">
  <rect style="fill:#358334" width="3.2" height="7.2" x=".8" y="5.6" rx=".8" ry=".8"/>
  <rect style="fill:#358334" width="3.2" height="7.2" x="12" y="5.6" rx=".8" ry=".8"/>
 </g>
 <g transform="matrix(1.1,0,0,1,-0.3,0)">
  <path style="fill:#50b24e" d="M 3.7692308,5.6 12.230769,5.6 13,5.6 13,15.2 C 13,15.6432 12.656923,16 12.230769,16 L 9.5384615,16 8.3846154,14 7.6153846,14 6.4615385,16 3.7692308,16 C 3.3430769,16 3,15.6432 3,15.2 L 3,5.6 Z"/>
  <ellipse style="fill:#50b24e" cx="8" cy="5.2" rx="5" ry="5.2"/>
 </g>
 <path style="fill:#ffffff" d="M 8.5,2 A 3.5,3.5555556 0 0 0 5,5.5555556 3.5,3.5555556 0 0 0 5.0316181,6 L 11.969241,6 A 3.5,3.5555556 0 0 0 12,5.5555556 3.5,3.5555556 0 0 0 8.5,2 Z"/>
 <path style="fill:#ffffff" class="ColorScheme-Text" d="m 8.5,7.0004643 c -0.9233333,0 -1.4666667,0.7806857 -1.4666667,1.7410714 L 7.0333333,9 6.4166667,9 C 6.1858333,9 6,9.262857 6,9.500286 l 0,2.071143 C 6,11.808857 6.1858333,12 6.4166667,12 l 4.1666663,0 C 10.814167,12 11,11.808857 11,11.571429 L 11,9.500286 C 11,9.262857 10.810822,8.960846 10.583333,9 l -0.6166661,0 0,-0.2584643 c 0,-0.96 -0.5433336,-1.7410714 -1.4666669,-1.7410714 z m 0,0.8571429 c 0.4616667,0 0.6333332,0.3822857 0.6333332,0.8571428 l 0,0.28525 -1.2666665,0 0,-0.28525 C 7.8666667,8.2398929 8.0383333,7.8576072 8.5,7.8576072 Z"/>
 <rect style="fill:#3f3f3f" width="1" height="1" x="10" y="4"/>
 <rect style="fill:#3f3f3f" width="1" height="1" x="6" y="4"/>
</svg>
